!!!COM: Palestrina, Giovanni Perluigi da
!!!OPR: Missa Te Deum laudamus
!!!OMD: Kyrie
!!!OTL: Christe
**kern	**kern	**kern	**kern
*Itenor	*Icalto	*Icalto	*Icant
!Tenor	!Altus 2	!Altus 1	!Cantus
*clefGv2	*clefG2	*clefG2	*clefG2
*k[]	*k[]	*k[]	*k[]
*A:aeo	*A:aeo	*A:aeo	*A:aeo
*M4/2	*M4/2	*M4/2	*M4/2
=24	=24	=24	=24
0r	0r	1.f	1r
.	.	.	[1cc
.	.	2f	.
=25	=25	=25	=25
0r	0r	2e	2cc]
.	.	2c	2cc
.	.	2e	2b
.	.	2f	2a
=26	=26	=26	=26
0r	1r	1g	1b
.	[1f	[1d	2a
.	.	.	4d
.	.	.	4e
=27	=27	=27	=27
0r	2f]	2d]	4f
.	.	.	4g
.	2f	2d	4a
.	.	.	4b
.	2e	2c	2cc
.	2d	2B	[2dd
=28	=28	=28	=28
0r	1e	2.A	4dd]
.	.	.	4cc
.	.	.	1cc
.	.	4G	.
.	1d	2F	.
.	.	2G	2b
=29	=29	=29	=29
1.c	2r	4A	1cc
.	.	4B	.
.	4A	4c	.
.	4B	4d	.
.	4c	4e	2.g
.	4d	4f	.
2c	4e	[2g	.
.	4f	.	4a
=30	=30	=30	=30
2B	2g	2g]	2b
2A	1a	4f	2cc#
.	.	4e	.
1B	.	1d	1dd
.	2g#	.	.
=31	=31	=31	=31
2A	1a	2r	2cc#
4D	.	1f	2dd
4E	.	.	.
4F	1r	.	[1a
4G	.	.	.
4A	.	2f	.
4B	.	.	.
=32	=32	=32	=32
2c	1r	2e	1a]
2.d	.	2d	.
.	2r	1e	1r
4c	.	.	.
[2c	[2g	.	.
=33	=33	=33	=33
2c]	2g]	1d	1r
2B	2g	.	.
1A	2f	2.c	2r
.	2e	.	[2cc
.	.	4B	.
=34	=34	=34	=34
1F	1f	2A	2cc]
.	.	2a	2cc
2G	2d	2g	2b
2A	2c	2e	2a
=35	=35	=35	=35
1G	2d	4g	1b
.	.	4f	.
.	1e	4e	.
.	.	4d	.
[1A	.	2c	[1a
.	[2d	2f	.
=36	=36	=36	=36
1A]	2d]	1e	0a]
.	2c#	.	.
2r	2d	1d	.
2d	2f	.	.
=37	=37	=37	=37
2d	2f	1r	2r
2c#	2e	.	2a
1d	1f#	2r	2a
.	.	2d	2a
=38	=38	=38	=38
1G	1g	2d	1b
.	.	2d	.
1c	1r	1e	2g
.	.	.	[2cc
=39	=39	=39	=39
2A	0r	2c	2cc]
1d	.	1f	4b
.	.	.	4a
.	.	.	4b
.	.	.	4a
2c	.	2e	[2a
=40	=40	=40	=40
1B	1r	1.d	2a]
.	.	.	2g#
1A	1e	.	[1a
.	.	4c#	.
.	.	4B	.
=41	=41	=41	=41
2r	2e	1c#	1a]
2A	2e	.	.
2A	1f#	1r	1r
2A	.	.	.
=42	=42	=42	=42
1B	2d	2r	1r
.	2.g	2d	.
2G	.	2d	2r
.	4f	.	.
[2c	4e	2e	2g
.	4d	.	.
=43	=43	=43	=43
2c]	2e	2c	2g
2B	2.d	2d	2g
1A	.	2e	2a
.	4c	.	.
.	[2c	4d	2f
.	.	4c	.
=44	=44	=44	=44
1G	2c]	1d	2.g
.	2B	.	.
.	.	.	4f
2r	1c	2r	[1e
2A	.	2c	.
=45	=45	=45	=45
2A	2r	2c	1e]
2G#	2e	2B	.
1A	2e	1c#	2r
.	2e	.	2a
=46	=46	=46	=46
1D	1f#	1d	2a
.	.	.	2a
1G	2d	2r	1b
.	[2g	2d	.
=47	=47	=47	=47
2E	2g]	2e	2g
1A	2f	2.c	1cc
.	2.e	.	.
.	.	4A	.
2G#	.	2B	[2b
.	4d	.	.
=48	=48	=48	=48
1A	2c	0e	4b]
.	.	.	4a
.	4B	.	1a
.	4A	.	.
1E	1B	.	.
.	.	.	2g#
=49	=49	=49	=49
2.F	1A	1c	[0a
4E	.	.	.
4D	1d	1f	.
4E	.	.	.
4F	.	.	.
4G	.	.	.
=50	=50	=50	=50
0A	0c#	0e	0a]
==	==	==	==
*-	*-	*-	*-
!!!CDT: 1525/^1526/-1594/2/2
!!!OCY: Italia
!!!AGN: Mass (Paraphrase)
!!!AST: renaissance, vocal
!!!ASW: Hymn
!!!PWK: Masses, Book 9
!!!RNB: Cadence finals: G,E,D
!!!YOR: Le Opere Complete, v. 25, p. 172
!!!YOO: Rome, Italy: Fratelli Scalera
!!!END: 1992//
!!!EED: John Miller
!!!YEC: Copyright 2000, John Miller
!!!YEN: United States of America
!!!YEM: Rights to all derivative electronic formats reserved.
!!!YEM: Refer to licensing agreement for further details.
!!!YEM: This file must be accompanied by the licensing agreement.
!!!YEM: A copy of the licensing agreement may be found at http://www.music-cog.ohio-state.edu/HumdrumDatabases/Palestrina/license.txt
!!!EMD: converted to Humdrum by Bret Aarden
